X: 1
T: Mountain Road, The
M: C|
L: 1/8
R: reel
K: Dmaj
|: "D"F2AF BFAF | F2AF EFDE | F2AF BFAF | "A"G2FG EFDE |
   "D"F2AF BFAF | F2AF EFD2 | FAA2 BAFA | "A"BABd "D"eddA :|
|: "D"d2dA BAFA | d2de fgfe | d2dA BAFA | "A"G2FG EDFA |
   "D"d2dA BAFA | d2de fgfe | d2dA BAFA |\
  [1 "A"G2FG EDFA :|[2  "A"G2FG EFDE |]
N:http://www.thesession.org/tunes/display/68 3/10/2007
N:1st and 2nd endings added by Peter Ostapenko 3/27/2007
N:Chords by Peter Ostapenko 3/27/2007
N:D Major
